assets/icons/newskie.svg

<svg width="24" height="24" viewBox="0 0 24 24" fill="none" xmlns="http://www.w3.org/2000/svg">
<path fill-rule="evenodd" clip-rule="evenodd" d="M11.1833 8.56119C11.1833 9.10455 11.5312 9.54545 12.0754 9.54545C12.6196 9.54545 12.9675 9.10457 12.9675 8.56039V6.98508C12.9675 6.4409 12.6196 6 12.0754 6C11.532 6 11.1833 6.4409 11.1833 6.98508V8.56119ZM17.1222 16.0421C17.1222 16.5807 16.6853 16.9843 16.1467 16.9843L8.00417 16.9843C7.46554 16.9843 7.02863 16.5728 7.02863 16.0342C7.02863 13.2515 9.29253 11.0128 12.0754 11.0128C14.8581 11.0128 17.1222 13.26 17.1222 16.0421ZM16.6933 11.4576C16.308 11.0731 16.308 10.4495 16.6933 10.065L17.8071 8.95121C18.1916 8.56672 18.8152 8.56672 19.1997 8.95121C19.5842 9.3357 19.5842 9.95931 19.1997 10.3438L18.0859 11.4576C17.7006 11.8421 17.0778 11.8421 16.6933 11.4576ZM19.5897 15.1991H21.165C21.7092 15.1991 22.1501 15.5479 22.1501 16.0912C22.1501 16.6346 21.7092 16.9834 21.165 16.9834H20.3491H20.2546H19.4959C18.9971 16.9834 18.6046 16.6076 18.6046 16.096C18.6046 15.5526 19.0455 15.1991 19.5897 15.1991ZM5.54547 16.0921C5.54547 15.5479 5.10457 15.2 4.56039 15.2H2.98508C2.4409 15.2 2 15.5487 2 16.0921C2 16.6362 2.4409 16.9842 2.98508 16.9842H4.56039C5.10457 16.9842 5.54547 16.6355 5.54547 16.0921ZM7.45753 10.065C7.84202 10.4495 7.84202 11.0731 7.45753 11.4576C7.07302 11.8429 6.4502 11.8429 6.06492 11.4576L4.95115 10.3438C4.56666 9.95931 4.56666 9.3357 4.95115 8.95121C5.33566 8.56672 5.95927 8.56672 6.34376 8.95121L7.45753 10.065Z" fill="#FFC404"/>
</svg>

<svg xmlns="http://www.w3.org/2000/svg" fill="none" viewBox="0 0 24 24"><path fill="#FFC404" fill-rule="evenodd" d="M11.183 8.561c0 .544.348.984.892.984.545 0 .893-.44.893-.985V6.985c0-.544-.348-.985-.893-.985-.543 0-.892.44-.892.985v1.576Zm5.94 7.481c0 .539-.438.942-.976.942H8.004c-.538 0-.975-.411-.975-.95 0-2.782 2.264-5.021 5.046-5.021 2.783 0 5.047 2.247 5.047 5.03Zm-.43-4.584a.983.983 0 0 1 0-1.393l1.114-1.114a.985.985 0 0 1 1.393 1.393l-1.114 1.114a.985.985 0 0 1-1.393 0Zm2.897 3.741h1.575c.544 0 .985.349.985.892 0 .544-.44.892-.985.892h-1.67a.872.872 0 0 1-.89-.887c0-.543.44-.897.985-.897Zm-14.045.893c0-.544-.44-.892-.985-.892H2.985c-.544 0-.985.349-.985.892 0 .544.44.892.985.892H4.56c.545 0 .985-.349.985-.892Zm1.913-6.027a.985.985 0 0 1-1.393 1.393L4.95 10.344A.985.985 0 0 1 6.344 8.95l1.114 1.114Z" clip-rule="evenodd"/></svg>
